src/components/atoms/Icon/svgs/clipboard.svg

<svg width="24" height="24" viewBox="0 0 24 24" fill="none" xmlns="http://www.w3.org/2000/svg">
    <path
        d="M16 4H18C18.5304 4 19.0391 4.21071 19.4142 4.58579C19.7893 4.96086 20 5.46957 20 6V20C20 20.5304 19.7893 21.0391 19.4142 21.4142C19.0391 21.7893 18.5304 22 18 22H6C5.46957 22 4.96086 21.7893 4.58579 21.4142C4.21071 21.0391 4 20.5304 4 20V6C4 5.46957 4.21071 4.96086 4.58579 4.58579C4.96086 4.21071 5.46957 4 6 4H8"
        stroke="currentColor" stroke-width="2" stroke-linecap="round" stroke-linejoin="round" />
    <path
        d="M15 2H9C8.44772 2 8 2.44772 8 3V5C8 5.55228 8.44772 6 9 6H15C15.5523 6 16 5.55228 16 5V3C16 2.44772 15.5523 2 15 2Z"
        stroke="currentColor" stroke-width="2" stroke-linecap="round" stroke-linejoin="round" />
</svg>

<svg viewBox="0 0 24 24" fill="none" xmlns="http://www.w3.org/2000/svg">
    <path d="M16 4h2a2 2 0 012 2v14a2 2 0 01-2 2H6a2 2 0 01-2-2V6a2 2 0 012-2h2" stroke="currentColor" stroke-width="2" stroke-linecap="round" stroke-linejoin="round"/>
    <path d="M15 2H9a1 1 0 00-1 1v2a1 1 0 001 1h6a1 1 0 001-1V3a1 1 0 00-1-1z" stroke="currentColor" stroke-width="2" stroke-linecap="round" stroke-linejoin="round"/>
</svg>
